X:2431
T:Callaghan's ()
T:Humours of Galtymore
M:4/4
L:1/8
S:Michael Kilbane's box lessons, 1990
R:reel
D:Kerry Fiddles - Padraig O'Keefe, Denis Murphy, Julia Clifford
K:D
|:AF ~F2 FEDE|F2 FE F2 dB|AF ~F2 FEDE|FABA FE ~E2|
AF ~F2 FEDE|F2 FE F2 dB|AF ~F2 FEDE|F2 EG FD ~D2:|
|:A3B AF ~F2|ABde fe ~e2|fedc BcdB|ABde fedB|
A3B AF ~F2|ABde fe ~e2|fedc BcdB|ABde fedB:|
